packages/core/src/svgs/tokens/branded/GBEX.svg

<svg width="24" height="24" viewBox="0 0 24 24" fill="none" xmlns="http://www.w3.org/2000/svg">
<path d="M5.15666 12.0011C5.15666 13.1178 5.6003 14.1889 6.38999 14.9785C7.17967 15.7682 8.25071 16.2119 9.36749 16.2119H17.7891C18.1419 16.2119 18.8419 16.0013 18.8419 15.1592C18.8419 14.317 18.1419 14.1065 17.7891 14.1065H9.89386V10.9483H17.5261C17.8787 10.9483 18.8419 10.7378 18.8419 9.89563C18.8419 8.84291 18.0523 8.84291 17.5261 8.84291H15.6838V5.68478H18.8419C19.8052 5.68478 22 6.21113 22 9.10609C22 9.89563 21.579 11.8958 19.8946 12.5275C20.5946 12.6169 22 13.2644 22 15.1592C22 17.5278 20.9473 19.37 17.7891 19.37H8.84114V19.3489C7.64228 19.2628 6.48268 18.8848 5.46343 18.2477C4.44417 17.6108 3.59621 16.734 2.99348 15.6941C2.39075 14.6543 2.05154 13.4827 2.00543 12.2817C1.95931 11.0806 2.20768 9.88641 2.7289 8.80341C3.25012 7.72036 4.02834 6.78123 4.99575 6.06791C5.96315 5.35461 7.09036 4.88876 8.27908 4.71099C9.46781 4.53322 10.682 4.64892 11.8157 5.04801C12.9496 5.4471 13.9684 6.11747 14.7837 7.00067L12.4625 9.14293C11.8878 8.52 11.1385 8.08498 10.3126 7.89475C9.48673 7.70454 8.62266 7.76795 7.83338 8.07672C7.04412 8.38549 6.36639 8.92524 5.88882 9.62543C5.41125 10.3256 5.15608 11.1535 5.15666 12.0011Z" fill="#FE036A"/>
</svg>

<svg xmlns="http://www.w3.org/2000/svg" width="24" height="24" fill="none" viewBox="0 0 24 24">
    <path fill="#FE036A" d="M5.157 12.001a4.21 4.21 0 0 0 4.21 4.21h8.422c.353 0 1.053-.21 1.053-1.052s-.7-1.053-1.053-1.053H9.894v-3.158h7.632c.353 0 1.316-.21 1.316-1.052 0-1.053-.79-1.053-1.316-1.053h-1.842V5.685h3.158c.963 0 3.158.526 3.158 3.421 0 .79-.421 2.79-2.105 3.422.7.089 2.105.736 2.105 2.631 0 2.369-1.053 4.211-4.21 4.211H8.84v-.021A7.368 7.368 0 1 1 14.784 7l-2.322 2.142A4.211 4.211 0 0 0 5.158 12"/>
</svg>
